X: 8
T: Tommy Peoples'
Z: shanachie
S: https://thesession.org/tunes/192#setting49332
R: reel
M: 4/4
L: 1/8
K: Bmin
"Bm"B3c dBAF|"Bm"B3c "A"dfed|"Bm"B3c dcdB|"G"ABde "A"fded|
"Bm"B3c dBAF|"Bm"B3c "A"dfed|"Bm"B3c dcdB|"G"ABde "A"fdec||
"D"dfaf bfaf|"D"dfaf "G"g2fg|"D"afge d3B|"G"ABde "A"fdec|
"D"dfaf bfaf|"D"dfaf "G"g2fg|"D"afge d3B|"G"ABde "A"fded||

